X: 1
T: Mungal\aaten
O: Uppland
R: march
Z: 2021 John Chambers <jc:trillian.mit.edu>
M: 4/4
L: 1/8
K: G
D2 |\
G4 GFGA | G2D2 F2G2 | A4 A^GAB | A2D2 G2A2 | B4   B2AB | c2B2 A2G2 | A3G  F2E2 | D2C2 B,2D2 |
G4 GFGA | G2D2 F2G2 | A4 A^GAB | A2D2 G2A2 | B2AB c2Bc | d2cd e2c2 | BdBG AcAF | G6 :|
|: B2 |\
d4 d^cde | d2c2 B2AB | c4 cBcd | c2B2 A2GA | B4   B2AB | c2B2 A2G2 | A3G  F2E2 | D2C2 B,CGB |
d4 d^cde | d2c2 B2AB | c4 cBcd | c2B2 A2GA | B2AB c2Bc | d2cd e2c2 | BdBG AcAF | G6 :|
